X: 100366
T: LADY ANN STEWART'S STRATHSPEY
R: strathspey
B: K\"ohler's Violin Repository, v.3, 1885 p.246 #3
F: http://www.archive.org/details/klersviolinrepos03rugg
Z: 2012 John Chambers <jc:trillian.mit.edu>
M: C|
L: 1/8
K: Bb
"^*"uf |\
vb<uf (uf>g) f2 (de/f/) | (g>B) (f>B) A<cc>a |\
vb<uf (uf>g) f2 (d>B) | (A/B/c) (A>G) F<BB :|
|: (ud/c/) |\
(B>d)(G>B) (F>B)(D>c) | (B/c/d) (c>B) vA<uc (ucd/c/) |\
BDDE ~G>ABg | f<B {B}A>G "_Segue Reel."F<BB :|
%%text * First two Notes point of Bow, and the slur whole Bow.

%%sep 2 1 500

